X:195
T:Limestone Rock
Z: id:dc-reel-178
M:C
L:1/8
K:G Major
dc|BGG2 AGG2|DGG2 A2dc|BGG2 AGAB|cABG A2:|!
Bd|e2dg e2dg|e2dB A2Bd|eBB2 gBB2|cABG A2Bd|!
efgf eaaf|gedB A2Bd|g3f gabg|agef ge|]!

